;FLAVOR:Marlin
;TIME:264
;Filament used: 0.137297m
;Layer height: 0.15
;MINX:105.08
;MINY:105.45
;MINZ:0.2
;MAXX:129.947
;MAXY:131.397
;MAXZ:3.95
;Generated with Cura_SteamEngine 4.8.0
M140 S60
M105
M190 S60
M104 S200
M105
M109 S200
M82 ;absolute extrusion mode
; -- START GCODE --
G21                     ;set units to millimetres
G90                     ;set to absolute positioning
M106 S0                 ;set fan speed to zero (turned off)
G28                     ;home all axis
G92 E0                  ;zero the extruded length
G1 Z1 F1000             ;move up slightly
G1 Y60.0 Z0 E9.0 F1000.0;intro line
G1 Y100.0 E21.5 F1000.0 ;continue line
G92 E0                  ;zero the extruded length again
; -- end of START GCODE --
G92 E0
G92 E0
G1 F2700 E-5
;LAYER_COUNT:26
;LAYER:0
M107
G0 F3600 X106.331 Y106.942 Z0.2
;TYPE:SKIRT
G1 F2700 E0
G1 F1200 X106.774 Y106.547 E0.01974
G1 X107.265 Y106.215 E0.03945
G1 X107.797 Y105.953 E0.05918
G1 X108.5 Y105.729 E0.08372
G1 X109.153 Y105.59 E0.10592
G1 X109.47 Y105.529 E0.11666
G1 X110.058 Y105.451 E0.13639
G1 X110.605 Y105.45 E0.15458
G1 X111.114 Y105.481 E0.17154
G1 X111.83 Y105.537 E0.19543
G1 X112.278 Y105.585 E0.21042
G1 X114.996 Y105.846 E0.30123
G1 X117.682 Y106.029 E0.39078
G1 X120.386 Y106.135 E0.48078
G1 X124.704 Y106.153 E0.6244
G1 X125.343 Y106.195 E0.6457
G1 X125.675 Y106.237 E0.65683
G1 X126.192 Y106.313 E0.67421
G1 X126.771 Y106.438 E0.69391
G1 X127.329 Y106.641 E0.71366
G1 X127.854 Y106.916 E0.73337
G1 X128.337 Y107.26 E0.75309
G1 X128.77 Y107.665 E0.77281
G1 X129.144 Y108.125 E0.79253
G1 X129.453 Y108.631 E0.81225
G1 X129.691 Y109.174 E0.83197
G1 X129.854 Y109.744 E0.85169
G1 X129.939 Y110.331 E0.87142
G1 X129.947 Y110.867 E0.88925
G1 X129.896 Y111.988 E0.92657
G1 X129.877 Y112.297 E0.93687
G1 X129.787 Y115.005 E1.02698
G1 X129.777 Y118.016 E1.12713
G1 X129.795 Y119.493 E1.17626
G1 X129.786 Y120.036 E1.19432
G1 X129.73 Y121.338 E1.23767
G1 X129.699 Y121.75 E1.25141
G1 X129.64 Y122.313 E1.27024
G1 X129.624 Y122.446 E1.27469
G1 X129.556 Y122.947 E1.29151
G1 X129.523 Y123.153 E1.29845
G1 X129.428 Y123.668 E1.31587
G1 X129.232 Y124.408 E1.34133
G1 X129.172 Y124.59 E1.3477
G1 X128.998 Y125.083 E1.36509
G1 X128.762 Y125.631 E1.38493
G1 X128.523 Y126.083 E1.40194
G1 X128.231 Y126.583 E1.4212
G1 X127.902 Y127.069 E1.44072
G1 X127.595 Y127.454 E1.4571
G1 X127.258 Y127.846 E1.47429
G1 X126.988 Y128.133 E1.4874
G1 X126.627 Y128.484 E1.50414
G1 X126.249 Y128.83 E1.52119
G1 X125.749 Y129.259 E1.5431
G1 X125.333 Y129.587 E1.56072
G1 X124.923 Y129.882 E1.57752
G1 X124.519 Y130.157 E1.59377
G1 X123.97 Y130.474 E1.61486
G1 X123.503 Y130.7 E1.63211
G1 X123.144 Y130.863 E1.64523
G1 X122.63 Y131.056 E1.66349
G1 X122.043 Y131.218 E1.68374
G1 X121.454 Y131.331 E1.70369
G1 X120.946 Y131.385 E1.72068
G1 X120.284 Y131.397 E1.7427
G1 X119.898 Y131.375 E1.75556
G1 X119.309 Y131.301 E1.77531
G1 X118.554 Y131.097 E1.80132
G1 X117.789 Y130.814 E1.82845
G1 X117.043 Y130.468 E1.8558
G1 X115.927 Y129.93 E1.897
G1 X113.465 Y128.83 E1.98669
G1 X110.376 Y127.562 E2.09775
G1 X109.826 Y127.35 E2.11736
G1 X109.115 Y127 E2.14371
G1 X108.746 Y126.775 E2.15809
G1 X108.262 Y126.433 E2.1778
G1 X107.843 Y126.044 E2.19682
G1 X107.464 Y125.623 E2.21566
G1 X107.308 Y125.429 E2.22394
G1 X106.986 Y124.971 E2.24256
G1 X106.672 Y124.413 E2.26385
G1 X106.448 Y123.944 E2.28114
G1 X106.223 Y123.409 E2.30044
G1 X105.945 Y122.629 E2.32799
G1 X105.784 Y122.106 E2.34619
G1 X105.578 Y121.356 E2.37206
G1 X105.456 Y120.857 E2.38914
G1 X105.358 Y120.349 E2.40635
G1 X105.266 Y119.517 E2.43419
G1 X105.248 Y119.208 E2.44449
G1 X105.235 Y118.628 E2.46378
G1 X105.234 Y118.479 E2.46874
G1 X105.249 Y117.165 E2.51244
G1 X105.256 Y116.079 E2.54856
G1 X105.217 Y113.324 E2.64021
G1 X105.107 Y110.946 E2.71938
G1 X105.08 Y110.172 E2.74514
G1 X105.099 Y109.58 E2.76484
G1 X105.198 Y108.995 E2.78458
G1 X105.374 Y108.429 E2.80429
G1 X105.625 Y107.892 E2.82401
G1 X105.946 Y107.393 E2.84374
G1 X106.331 Y106.942 E2.86346
G0 F3600 X106.73 Y107.111
G1 F1200 X107.167 Y106.753 E2.88225
G1 X107.651 Y106.46 E2.90107
G1 X108.171 Y106.238 E2.91987
G1 X108.87 Y106.055 E2.94391
G1 X109.39 Y105.953 E2.96153
G1 X109.549 Y105.921 E2.96693
G1 X110.11 Y105.849 E2.98574
G1 X110.581 Y105.849 E3.0014
G1 X111.083 Y105.88 E3.01813
G1 X111.799 Y105.936 E3.04202
G1 X112.204 Y105.979 E3.05557
G1 X114.964 Y106.245 E3.14779
G1 X117.674 Y106.429 E3.23813
G1 X120.368 Y106.535 E3.3278
G1 X124.704 Y106.553 E3.47202
G1 X125.295 Y106.592 E3.49172
G1 X125.617 Y106.633 E3.50252
G1 X126.134 Y106.709 E3.5199
G1 X126.686 Y106.83 E3.53869
G1 X127.215 Y107.028 E3.55748
G1 X127.712 Y107.299 E3.57631
G1 X128.165 Y107.637 E3.59511
G1 X128.566 Y108.036 E3.61392
G1 X128.906 Y108.487 E3.63271
G1 X129.18 Y108.982 E3.65152
G1 X129.381 Y109.51 E3.67031
G1 X129.506 Y110.061 E3.68911
G1 X129.548 Y110.849 E3.71535
G1 X129.496 Y111.963 E3.75244
G1 X129.478 Y112.258 E3.76227
G1 X129.387 Y114.991 E3.85322
G1 X129.377 Y118.021 E3.954
G1 X129.395 Y119.498 E4.00313
G1 X129.386 Y120.019 E4.02046
G1 X129.33 Y121.321 E4.06381
G1 X129.301 Y121.708 E4.07672
G1 X129.228 Y122.392 E4.0996
G1 X129.16 Y122.893 E4.11641
G1 X129.13 Y123.081 E4.12274
G1 X129.035 Y123.596 E4.14016
G1 X128.849 Y124.292 E4.16412
G1 X128.795 Y124.457 E4.1699
G1 X128.621 Y124.95 E4.18729
G1 X128.406 Y125.448 E4.20533
G1 X128.177 Y125.881 E4.22162
G1 X127.885 Y126.381 E4.24088
G1 X127.586 Y126.823 E4.25863
G1 X127.291 Y127.194 E4.27439
G1 X126.954 Y127.586 E4.29158
G1 X126.709 Y127.846 E4.30347
G1 X126.265 Y128.276 E4.32402
G1 X125.988 Y128.527 E4.33646
G1 X125.497 Y128.948 E4.35797
G1 X125.099 Y129.262 E4.37483
G1 X124.595 Y129.623 E4.39545
G1 X124.295 Y129.826 E4.4075
G1 X123.795 Y130.114 E4.42669
G1 X123.223 Y130.389 E4.4478
G1 X122.513 Y130.673 E4.47323
G1 X121.942 Y130.831 E4.49294
G1 X121.397 Y130.935 E4.51139
G1 X120.909 Y130.986 E4.52771
G1 X120.306 Y130.998 E4.54777
G1 X119.92 Y130.976 E4.56063
G1 X119.36 Y130.904 E4.57941
G1 X118.669 Y130.714 E4.60324
G1 X117.957 Y130.451 E4.62849
G1 X117.216 Y130.107 E4.65566
G1 X116.113 Y129.576 E4.69638
G1 X113.621 Y128.462 E4.78717
G1 X110.492 Y127.177 E4.89967
G1 X109.97 Y126.976 E4.91828
G1 X109.324 Y126.658 E4.94222
G1 X108.955 Y126.433 E4.9566
G1 X108.494 Y126.105 E4.97542
G1 X107.989 Y125.617 E4.99877
G1 X107.62 Y125.179 E5.01782
G1 X107.327 Y124.762 E5.03477
G1 X107.033 Y124.241 E5.05467
G1 X106.809 Y123.772 E5.07196
G1 X106.594 Y123.259 E5.09046
G1 X106.324 Y122.502 E5.11719
G1 X106.17 Y122 E5.13465
G1 X105.93 Y121.12 E5.16499
G1 X105.797 Y120.533 E5.18501
G1 X105.708 Y119.952 E5.20456
G1 X105.648 Y119.199 E5.22968
G1 X105.635 Y118.619 E5.24898
G1 X105.634 Y118.483 E5.2535
G1 X105.649 Y117.169 E5.29721
G1 X105.656 Y116.1 E5.33277
G1 X105.617 Y113.332 E5.42484
G1 X105.506 Y110.932 E5.50475
G1 X105.479 Y110.158 E5.53051
G1 X105.5 Y109.593 E5.54931
G1 X105.599 Y109.037 E5.5681
G1 X105.777 Y108.5 E5.58691
G1 X106.028 Y107.994 E5.6057
G1 X106.348 Y107.528 E5.6245
G1 X106.73 Y107.111 E5.64331
G0 F3600 X106.748 Y107.671
G1 F1200 X107.128 Y107.291 E5.66118
G1 X107.559 Y106.973 E5.679
G1 X108.033 Y106.721 E5.69685
G1 X108.678 Y106.509 E5.71944
G1 X109.307 Y106.375 E5.74083
G1 X109.628 Y106.313 E5.7517
G1 X110.16 Y106.246 E5.76953
G1 X110.988 Y106.275 E5.79709
G1 X111.768 Y106.335 E5.82311
G1 X112.218 Y106.383 E5.83816
G1 X114.902 Y106.642 E5.92785
G1 X117.665 Y106.83 E6.01996
G1 X120.351 Y106.935 E6.10936
G1 X124.704 Y106.953 E6.25414
G1 X125.246 Y106.989 E6.27221
G1 X125.559 Y107.028 E6.2827
G1 X126.076 Y107.104 E6.30008
G1 X126.599 Y107.222 E6.31791
G1 X127.099 Y107.415 E6.33574
G1 X127.565 Y107.681 E6.35359
G1 X127.986 Y108.013 E6.37142
G1 X128.353 Y108.404 E6.38926
G1 X128.658 Y108.845 E6.40709
G1 X128.894 Y109.327 E6.42494
G1 X129.056 Y109.838 E6.44277
G1 X129.14 Y110.368 E6.46062
G1 X129.148 Y110.831 E6.47602
G1 X129.097 Y111.938 E6.51288
G1 X129.077 Y112.254 E6.52341
G1 X128.987 Y114.977 E6.61402
G1 X128.977 Y118.026 E6.71543
G1 X128.995 Y119.607 E6.76802
G1 X128.987 Y120.002 E6.78116
G1 X128.931 Y121.304 E6.82451
G1 X128.903 Y121.666 E6.83658
G1 X128.831 Y122.338 E6.85906
G1 X128.763 Y122.839 E6.87588
G1 X128.736 Y123.008 E6.88157
G1 X128.641 Y123.523 E6.89899
G1 X128.467 Y124.175 E6.92143
G1 X128.418 Y124.324 E6.92665
G1 X128.244 Y124.817 E6.94404
G1 X127.924 Y125.51 E6.96943
G1 X127.832 Y125.679 E6.97583
G1 X127.54 Y126.179 E6.99509
G1 X127.098 Y126.799 E7.02041
G1 X126.988 Y126.933 E7.02618
G1 X126.651 Y127.325 E7.04337
G1 X126.431 Y127.559 E7.05405
G1 X125.995 Y127.981 E7.07423
G1 X125.727 Y128.224 E7.08627
G1 X125.329 Y128.567 E7.10374
G1 X124.866 Y128.937 E7.12345
G1 X124.371 Y129.292 E7.14371
G1 X124.071 Y129.495 E7.15576
G1 X123.621 Y129.753 E7.17301
G1 X123.059 Y130.024 E7.19377
G1 X122.396 Y130.291 E7.21754
G1 X121.841 Y130.444 E7.23669
G1 X121.339 Y130.54 E7.25369
G1 X120.871 Y130.588 E7.26933
G1 X120.329 Y130.598 E7.28736
G1 X119.943 Y130.576 E7.30022
G1 X119.411 Y130.506 E7.31807
G1 X118.784 Y130.331 E7.33972
G1 X118.125 Y130.088 E7.36308
G1 X117.39 Y129.747 E7.39003
G1 X116.285 Y129.214 E7.43084
G1 X113.771 Y128.091 E7.52241
G1 X110.662 Y126.814 E7.6342
G1 X110.113 Y126.603 E7.65376
G1 X109.532 Y126.317 E7.6753
G1 X109.163 Y126.092 E7.68968
G1 X108.727 Y125.779 E7.70753
G1 X108.28 Y125.342 E7.72832
G1 X107.932 Y124.928 E7.74631
G1 X107.573 Y124.398 E7.7676
G1 X107.393 Y124.069 E7.78007
G1 X107.169 Y123.6 E7.79736
G1 X106.965 Y123.11 E7.81501
G1 X106.703 Y122.374 E7.841
G1 X106.556 Y121.894 E7.85769
G1 X106.319 Y121.027 E7.88759
G1 X106.191 Y120.463 E7.90683
G1 X106.107 Y119.915 E7.92526
G1 X106.048 Y119.19 E7.94946
G1 X106.035 Y118.61 E7.96875
G1 X106.034 Y118.488 E7.97281
G1 X106.049 Y117.174 E8.01652
G1 X106.056 Y116.094 E8.05244
G1 X106.017 Y113.307 E8.14515
G1 X105.906 Y110.919 E8.22466
G1 X105.879 Y110.145 E8.25041
G1 X105.9 Y109.609 E8.26826
G1 X106.001 Y109.082 E8.2861
G1 X106.179 Y108.576 E8.30394
G1 X106.43 Y108.102 E8.32178
G1 X106.748 Y107.671 E8.3396
G0 F3600 X107.149 Y107.824
G1 F1200 X107.523 Y107.485 E8.35639
G1 X107.947 Y107.209 E8.37321
G1 X108.409 Y107.003 E8.39004
G1 X109.047 Y106.835 E8.41198
G1 X109.707 Y106.705 E8.43435
G1 X110.209 Y106.645 E8.45117
G1 X110.964 Y106.674 E8.4763
G1 X111.737 Y106.734 E8.50209
G1 X112.162 Y106.78 E8.51631
G1 X114.873 Y107.041 E8.60689
G1 X117.621 Y107.228 E8.6985
G1 X120.363 Y107.335 E8.78977
G1 X124.704 Y107.353 E8.93415
G1 X125.425 Y107.414 E8.95822
G1 X126.017 Y107.5 E8.97812
G1 X126.51 Y107.613 E8.99494
G1 X126.979 Y107.802 E9.01176
G1 X127.412 Y108.062 E9.02855
G1 X127.799 Y108.388 E9.04538
G1 X128.13 Y108.77 E9.0622
G1 X128.396 Y109.2 E9.07901
G1 X128.592 Y109.666 E9.09583
G1 X128.711 Y110.157 E9.11263
G1 X128.749 Y110.812 E9.13445
G1 X128.698 Y111.914 E9.17115
G1 X128.677 Y112.253 E9.18244
G1 X128.587 Y114.962 E9.27259
G1 X128.577 Y118.031 E9.37467
G1 X128.595 Y119.6 E9.42686
G1 X128.587 Y119.985 E9.43967
G1 X128.531 Y121.287 E9.48301
G1 X128.506 Y121.625 E9.49428
G1 X128.447 Y122.188 E9.51311
G1 X128.367 Y122.785 E9.53315
G1 X128.343 Y122.935 E9.5382
G1 X128.248 Y123.45 E9.55562
G1 X128.084 Y124.059 E9.57659
G1 X128.041 Y124.191 E9.58121
G1 X127.867 Y124.684 E9.5986
G1 X127.569 Y125.328 E9.6222
G1 X127.486 Y125.478 E9.6279
G1 X127.194 Y125.978 E9.64716
G1 X126.782 Y126.553 E9.67069
G1 X126.685 Y126.672 E9.67579
G1 X126.348 Y127.064 E9.69299
G1 X126.152 Y127.272 E9.70249
G1 X125.724 Y127.686 E9.7223
G1 X125.466 Y127.921 E9.73391
G1 X125.068 Y128.264 E9.75138
G1 X124.632 Y128.613 E9.76996
G1 X124.222 Y128.908 E9.78676
G1 X123.447 Y129.393 E9.81716
G1 X122.896 Y129.659 E9.83751
G1 X122.279 Y129.908 E9.85964
G1 X121.74 Y130.057 E9.87824
G1 X121.121 Y130.163 E9.89913
G1 X120.352 Y130.199 E9.92474
G1 X119.966 Y130.177 E9.93759
G1 X119.228 Y130.047 E9.96252
G1 X118.607 Y129.851 E9.98418
G1 X118.293 Y129.725 E9.99543
G1 X117.564 Y129.387 E10.02216
G1 X116.428 Y128.839 E10.06411
G1 X113.959 Y127.736 E10.15405
G1 X110.801 Y126.439 E10.2676
G1 X110.257 Y126.23 E10.28698
G1 X109.74 Y125.975 E10.30615
G1 X109.371 Y125.75 E10.32053
G1 X108.962 Y125.454 E10.33732
G1 X108.57 Y125.067 E10.35564
G1 X108.243 Y124.677 E10.37257
G1 X107.914 Y124.189 E10.39214
G1 X107.754 Y123.896 E10.40325
G1 X107.53 Y123.427 E10.42053
G1 X107.336 Y122.961 E10.43732
G1 X107.082 Y122.247 E10.46253
G1 X106.941 Y121.789 E10.47847
G1 X106.735 Y121.039 E10.50434
G1 X106.585 Y120.393 E10.52639
G1 X106.505 Y119.878 E10.54373
G1 X106.448 Y119.181 E10.56699
G1 X106.434 Y118.492 E10.58991
G1 X106.449 Y117.178 E10.63362
G1 X106.456 Y116.088 E10.66987
G1 X106.417 Y113.315 E10.76211
G1 X106.306 Y110.905 E10.84235
G1 X106.279 Y110.131 E10.86811
G1 X106.301 Y109.625 E10.88496
G1 X106.403 Y109.13 E10.90177
G1 X106.581 Y108.657 E10.91857
G1 X106.832 Y108.218 E10.93539
G1 X107.149 Y107.824 E10.95221
G1 F2700 E5.95221
G0 F3600 X110.365 Y109.153
G0 X111.423 Y110.113
;TYPE:SUPPORT
G1 F2700 E10.95221
G1 F1200 X111.611 Y110.125 E10.95848
G1 X112.531 Y110.243 E10.98933
G1 X113.524 Y110.561 E11.02401
G1 X114.61 Y111.195 E11.06583
G1 X115.112 Y111.527 E11.08585
G1 X115.684 Y111.9 E11.10856
G1 X116.829 Y112.298 E11.14888
G1 X117.966 Y112.494 E11.18726
G1 X119.081 Y112.529 E11.22436
G1 X120.234 Y112.292 E11.26351
G1 X121.341 Y111.759 E11.30437
G1 X122.302 Y111.323 E11.33947
G1 X123.262 Y110.999 E11.37317
G1 X123.6 Y110.933 E11.38463
G1 X123.573 Y111.121 E11.39094
G1 X123.456 Y112.083 E11.42318
G1 X123.456 Y112.103 E11.42384
G1 X123.396 Y112.756 E11.44565
G1 X123.391 Y112.772 E11.44621
G1 X123.348 Y113.467 E11.46937
G1 X123.337 Y114.058 E11.48903
G1 X123.336 Y114.911 E11.5174
G1 X123.373 Y115.971 E11.55268
G1 X123.402 Y116.491 E11.57
G1 X123.43 Y117.112 E11.59068
G1 X123.453 Y117.707 E11.61048
G1 X123.492 Y119.215 E11.66065
G1 X123.483 Y119.786 E11.67965
G1 X123.464 Y120.551 E11.7051
G1 X123.423 Y121.218 E11.72733
G1 X123.349 Y121.848 E11.74842
G1 X123.256 Y122.407 E11.76727
G1 X123.114 Y122.839 E11.7824
G1 X122.865 Y123.283 E11.79933
G1 X122.523 Y123.692 E11.81706
G1 X122.052 Y124.135 E11.83857
G1 X121.594 Y124.519 E11.85844
G1 X121.075 Y124.884 E11.87955
G1 X120.649 Y125.055 E11.89482
G1 X120.475 Y124.826 E11.90438
G1 X120.026 Y124.295 E11.92751
G1 X119.483 Y123.745 E11.95322
G1 X118.919 Y123.248 E11.97822
G1 X118.477 Y122.913 E11.99667
G1 X118.355 Y122.817 E12.00183
G1 X117.77 Y122.444 E12.0249
G1 X117.732 Y122.422 E12.02636
G1 X117.198 Y122.137 E12.0465
G1 X117.175 Y122.121 E12.04743
G1 X116.502 Y121.808 E12.07212
G1 X115.964 Y121.612 E12.09116
G1 X115.818 Y121.559 E12.09633
G1 X115.247 Y121.396 E12.11608
G1 X114.696 Y121.276 E12.13483
G1 X114.081 Y121.196 E12.15546
G1 X113.485 Y121.168 E12.1753
G1 X113.4 Y121.168 E12.17813
G1 X112.56 Y121.258 E12.20623
G1 X112.19 Y121.343 E12.21886
G1 X112.036 Y120.97 E12.23228
G1 X111.801 Y120.244 E12.25766
G1 X111.623 Y119.559 E12.2812
G1 X111.54 Y118.924 E12.3025
G1 X111.645 Y118.809 E12.30768
G1 X111.933 Y118.392 E12.32453
G1 X111.975 Y118.327 E12.32711
G1 X112.236 Y117.808 E12.34643
G1 X112.258 Y117.754 E12.34837
G1 X112.553 Y116.97 E12.37623
G1 X112.586 Y116.767 E12.38307
G1 X112.574 Y116.188 E12.40233
G1 X112.466 Y115.546 E12.42398
G1 X112.466 Y115.528 E12.42458
G1 X112.344 Y114.897 E12.44596
G1 X112.344 Y114.885 E12.44636
G1 X112.197 Y114.168 E12.4707
G1 X111.864 Y112.462 E12.52851
G1 X111.423 Y110.113 E12.60801
G0 F3600 X112.014 Y110.338
G1 F1200 X112.014 Y112.39 E12.67626
G0 F3600 X111.943 Y112.014
G1 F1200 X115.566 Y112.014 E12.79676
G0 F3600 X114.681 Y111.434
G1 F1200 X114.681 Y121.113 E13.11868
G0 F3600 X112.014 Y120.382
G1 F1200 X112.014 Y118.555 E13.17945
